contributed-vectors/google_crowdsource.svg

<svg xmlns="http://www.w3.org/2000/svg" xml:space="preserve" style="fill-rule:evenodd;clip-rule:evenodd;stroke-linejoin:round;stroke-miterlimit:2" viewBox="0 0 192 192"><path d="M164.5 21.5c0-5.519-4.481-10-10-10h-133c-5.519 0-10 4.481-10 10v133c0 5.519 4.481 10 10 10h133c5.519 0 10-4.481 10-10v-133Z" style="fill:#fff" transform="translate(8 8)"/><g transform="matrix(.89 0 0 .89 10.56 10.562)"><circle cx="96" cy="92.9" r="10.579" style="fill:#ff837d"/><circle cx="96" cy="92.9" r="10.579" style="fill:#f9de81" transform="rotate(-90 98.692 70.682)"/><circle cx="96" cy="92.9" r="10.579" style="fill:#98dc9a" transform="translate(0 -39.176)"/><circle cx="96" cy="92.9" r="10.579" style="fill:#9abeff" transform="rotate(-90 73.94 95.433)"/><path d="M96 146.424H80.534v-.013c-1.321-.319-26.046-6.579-25.895-27.72.155-21.721-29.764-34.885-19.369-44.039 0 0 5.656-4.835 9.439-1.052l29.285 29.091s6.828 5.405 6.604 22.028H96v21.705Z" style="fill:#9abeff"/><path d="M96 124.719h15.402c-.224-16.623 6.604-22.028 6.604-22.028L147.291 73.6c3.783-3.783 9.439 1.052 9.439 1.052 10.395 9.154-19.524 22.318-19.369 44.039.151 21.091-24.457 27.371-25.885 27.718l-.064.015H96v-21.705Zm15.413 21.69h-.001v.015l.001-.015Z" style="fill:#f9de81"/><path d="M111.396 124.719a15.45 15.45 0 0 0-4.509-10.911 15.38 15.38 0 0 0-10.886-4.519h-.002a15.38 15.38 0 0 0-10.886 4.519 15.45 15.45 0 0 0-4.509 10.911v21.705s8.397 2.463 15.431 2.463c7.034 0 15.361-2.463 15.361-2.463v-21.705Z" style="fill:#ff837d" transform="matrix(1.00228 0 0 1 -.219 0)"/></g></svg>

<?xml version="1.0" encoding="UTF-8" standalone="no"?>
<!DOCTYPE svg PUBLIC "-//W3C//DTD SVG 1.1//EN" "http://www.w3.org/Graphics/SVG/1.1/DTD/svg11.dtd">
<svg width="100%" height="100%" viewBox="0 0 192 192" version="1.1" xmlns="http://www.w3.org/2000/svg" xmlns:xlink="http://www.w3.org/1999/xlink" xml:space="preserve" xmlns:serif="http://www.serif.com/" style="fill-rule:evenodd;clip-rule:evenodd;stroke-linejoin:round;stroke-miterlimit:2;">
    <g id="Layer1">
        <g transform="matrix(1,0,0,1,8,8)">
            <path d="M164.5,21.5C164.5,15.981 160.019,11.5 154.5,11.5L21.5,11.5C15.981,11.5 11.5,15.981 11.5,21.5L11.5,154.5C11.5,160.019 15.981,164.5 21.5,164.5L154.5,164.5C160.019,164.5 164.5,160.019 164.5,154.5L164.5,21.5Z" style="fill:white;"/>
        </g>
        <g transform="matrix(0.889998,0,0,0.889998,10.5602,10.5619)">
            <circle cx="96" cy="92.9" r="10.579" style="fill:rgb(255,131,125);"/>
            <g transform="matrix(6.12323e-17,-1,1,6.12323e-17,28.0098,169.374)">
                <circle cx="96" cy="92.9" r="10.579" style="fill:rgb(249,222,129);"/>
            </g>
            <g transform="matrix(1,0,0,1,0,-39.1757)">
                <circle cx="96" cy="92.9" r="10.579" style="fill:rgb(152,220,154);"/>
            </g>
            <g transform="matrix(6.12323e-17,-1,1,6.12323e-17,-21.4927,169.374)">
                <circle cx="96" cy="92.9" r="10.579" style="fill:rgb(154,190,255);"/>
            </g>
            <g transform="matrix(1,0,0,1,0.00642175,0)">
                <g transform="matrix(1,0,0,1,-0.00642175,0)">
                    <path d="M96,146.424L80.534,146.424L80.534,146.411C79.213,146.092 54.488,139.832 54.639,118.691C54.794,96.97 24.875,83.806 35.27,74.652C35.27,74.652 40.926,69.817 44.709,73.6L73.994,102.691C73.994,102.691 80.822,108.096 80.598,124.719L96,124.719L96,146.424Z" style="fill:rgb(154,190,255);"/>
                </g>
                <g transform="matrix(1,0,0,1,-0.00642175,0)">
                    <path d="M96,124.719L111.402,124.719C111.178,108.096 118.006,102.691 118.006,102.691L147.291,73.6C151.074,69.817 156.73,74.652 156.73,74.652C167.125,83.806 137.206,96.97 137.361,118.691C137.512,139.782 112.904,146.062 111.476,146.409L111.412,146.424L96,146.424L96,124.719ZM111.413,146.409L111.412,146.409L111.412,146.424C111.412,146.424 111.412,146.419 111.413,146.409Z" style="fill:rgb(249,222,129);"/>
                </g>
            </g>
            <g transform="matrix(1.00228,0,0,1,-0.218952,0)">
                <path d="M111.396,124.719C111.396,120.627 109.774,116.702 106.887,113.808C104,110.915 100.084,109.289 96.001,109.289C96,109.289 96,109.289 95.999,109.289C91.916,109.289 88,110.915 85.113,113.808C82.226,116.702 80.604,120.627 80.604,124.719C80.604,134.921 80.604,146.424 80.604,146.424C80.604,146.424 89.001,148.887 96.035,148.887C103.069,148.887 111.396,146.424 111.396,146.424L111.396,124.719Z" style="fill:rgb(255,131,125);"/>
            </g>
        </g>
    </g>
</svg>
